static/favicon/safari-pinned-tab.svg

<?xml version="1.0" encoding="UTF-8" standalone="no"?>
<!DOCTYPE svg PUBLIC "-//W3C//DTD SVG 1.1//EN" "http://www.w3.org/Graphics/SVG/1.1/DTD/svg11.dtd">
<svg width="100%" height="100%" viewBox="0 0 260 260" version="1.1" xmlns="http://www.w3.org/2000/svg" xmlns:xlink="http://www.w3.org/1999/xlink" xml:space="preserve" xmlns:serif="http://www.serif.com/" style="fill-rule:evenodd;clip-rule:evenodd;stroke-linejoin:round;stroke-miterlimit:2;">
    <path d="M193.6,13.2L197,17L197,57.5C197,93.5 196.8,98.4 195.4,100.6C191.9,105.8 183.6,107.6 178,104.3C172.4,101 172,99 171.7,70C171.4,40.3 170.9,37.6 164.8,34.3C161.8,32.7 158,32.5 124.3,32.2L87,31.9L87,104.2L100.9,103.8C113.1,103.5 115.1,103.3 117,101.5C121,97.9 122,93.9 122,80.6C122,68.7 122.1,68 124.6,65.1C130,58.6 141,58.7 145,65.3C146.9,68.4 147,70.7 147,118.3C147,162.9 146.8,168.3 145.4,170.6C140.8,177.5 130.6,177.7 124.5,171C122.7,169.1 122.4,167 122,153.6C121.2,130.4 119,128 98.8,128L87,128L87,196L110.4,196C133.6,196 133.9,196 136.6,198.3C138.8,200.2 139.4,201.7 139.8,206.3C140.2,211.7 140.1,212.1 136.7,215.5L133.2,219L41.3,219L37.9,216.7C31.5,212.4 31,204.1 37,198.7C39.9,196.1 40.4,196 51.5,196L63,196L63,32L53,32C38.6,32 34,29.1 34,20.2C34,16.5 34.6,15.2 37.4,12.4L40.8,9L115.5,9.2L190.2,9.5L193.6,13.2Z" style="fill:white;"/>
    <g transform="matrix(0.1,0,0,-0.1,0,260)">
        <path d="M385,2567C326,2539 269,2455 270,2398C272,2337 299,2299 434,2169L570,2038L570,710L492,710C431,710 405,705 370,688C288,646 248,569 264,485C270,455 304,417 471,252C581,144 688,47 708,38C741,22 790,20 1197,20C1492,20 1658,24 1677,31C1738,54 1790,126 1790,187C1790,254 1768,294 1690,375L1611,455L1684,455C1747,455 1761,458 1792,482C1860,534 1860,532 1860,981L1860,1383L1973,1273C2072,1176 2092,1161 2133,1152C2226,1133 2318,1179 2349,1263C2365,1305 2363,2098 2347,2126C2326,2163 1942,2550 1917,2559C1904,2564 1561,2571 1154,2575C527,2580 410,2579 385,2567ZM1936,2468L1970,2430L1970,2025C1970,1665 1968,1616 1954,1594C1919,1542 1836,1524 1780,1557C1724,1590 1720,1610 1717,1900C1714,2197 1709,2224 1648,2257C1618,2273 1580,2275 1243,2278L870,2281L870,1558L1009,1562C1131,1565 1151,1567 1170,1585C1210,1621 1220,1661 1220,1794C1220,1913 1221,1920 1246,1949C1300,2014 1410,2013 1450,1947C1469,1916 1470,1893 1470,1417C1470,971 1468,917 1454,894C1408,825 1306,823 1245,890C1227,909 1224,930 1220,1064C1212,1296 1190,1320 988,1320L870,1320L870,640L1104,640C1336,640 1339,640 1366,617C1388,598 1394,583 1398,537C1402,483 1401,479 1367,445L1332,410L413,410L379,433C315,476 310,559 370,613C399,639 404,640 515,640L630,640L630,2280L530,2280C386,2280 340,2309 340,2398C340,2435 346,2448 374,2476L408,2510L1155,2508L1902,2505L1936,2468ZM1650,1865C1650,1851 1649,1840 1647,1840C1645,1840 1633,1851 1620,1865L1597,1890L1623,1890C1645,1890 1650,1885 1650,1865ZM1305,740L1344,700L1260,700L1260,740C1260,762 1261,780 1263,780C1265,780 1284,762 1305,740Z" style="fill-rule:nonzero;"/>
    </g>
</svg>

<?xml version="1.0" standalone="no"?>
<!DOCTYPE svg PUBLIC "-//W3C//DTD SVG 20010904//EN"
 "http://www.w3.org/TR/2001/REC-SVG-20010904/DTD/svg10.dtd">
<svg version="1.0" xmlns="http://www.w3.org/2000/svg"
 width="260.000000pt" height="260.000000pt" viewBox="0 0 260.000000 260.000000"
 preserveAspectRatio="xMidYMid meet">
<metadata>
Created by potrace 1.14, written by Peter Selinger 2001-2017
</metadata>
<g transform="translate(0.000000,260.000000) scale(0.100000,-0.100000)"
fill="#000000" stroke="none">
<path d="M385 2567 c-59 -28 -116 -112 -115 -169 2 -61 29 -99 164 -229 l136
-131 0 -664 0 -664 -78 0 c-61 0 -87 -5 -122 -22 -82 -42 -122 -119 -106 -203
6 -30 40 -68 207 -233 110 -108 217 -205 237 -214 33 -16 82 -18 489 -18 295
0 461 4 480 11 61 23 113 95 113 156 0 67 -22 107 -100 188 l-79 80 73 0 c63
0 77 3 108 27 68 52 68 50 68 499 l0 402 113 -110 c99 -97 119 -112 160 -121
93 -19 185 27 216 111 16 42 14 835 -2 863 -21 37 -405 424 -430 433 -13 5
-356 12 -763 16 -627 5 -744 4 -769 -8z m1551 -99 l34 -38 0 -405 c0 -360 -2
-409 -16 -431 -35 -52 -118 -70 -174 -37 -56 33 -60 53 -63 343 -3 297 -8 324
-69 357 -30 16 -68 18 -405 21 l-373 3 0 -362 0 -361 139 4 c122 3 142 5 161
23 40 36 50 76 50 209 0 119 1 126 26 155 54 65 164 64 204 -2 19 -31 20 -54
20 -530 0 -446 -2 -500 -16 -523 -46 -69 -148 -71 -209 -4 -18 19 -21 40 -25
174 -8 232 -30 256 -232 256 l-118 0 0 -340 0 -340 234 0 c232 0 235 0 262
-23 22 -19 28 -34 32 -80 4 -54 3 -58 -31 -92 l-35 -35 -460 0 -459 0 -34 23
c-64 43 -69 126 -9 180 29 26 34 27 145 27 l115 0 0 820 0 820 -100 0 c-144 0
-190 29 -190 118 0 37 6 50 34 78 l34 34 747 -2 747 -3 34 -37z m-286 -603 c0
-14 -1 -25 -3 -25 -2 0 -14 11 -27 25 l-23 25 26 0 c22 0 27 -5 27 -25z m-345
-1125 l39 -40 -42 0 -42 0 0 40 c0 22 1 40 3 40 2 0 21 -18 42 -40z"/>
</g>
</svg>
